X:1
T:Title
%%score 1 2 { 3 | 4 }
L:1/8
Q:1/4=88
M:3/4
K:Bb
V:1 treble nm="Grand Piano, Soprano"
V:2 treble nm="Drawbar Organ, Staff-1"
V:3 bass nm="Choir Pad, The Other Side"
V:4 bass 
V:1
 F>F F3 F | GB G F3 | F>F F3 A | GF .C4 | F>F F3 F | GB G F3 | B>B A3 c | B=E F2 z A | A>B c3 d | %9
w: By~Solomon~W.~Straub * * *|||||||||
 cA B d3 | f>d c3 B | AG A2 G2 | F>F F3 F | GB G2 F2 | F>F G3 e | dc .B4 | C>D E3 F | EC D F3 | %18
w: |||||||||
 D>F E3 D | CC C2[K:bass] A,2 | B,>B, B,3 B, | B,B, B, B,3 | B,>B, B,3 B, | B,F, F,4- | %24
w: ||||||
 F,2 z2 z2 |] %25
w: |
V:2
 z2 z [B,DF] [B,DF][B,DF] | z [B,EG] z [B,DF] [B,DF][B,DF] | z [B,DF] z [A,CF] [A,CF][A,CF] | %3
 z [A,CF] z[K:bass] [F,B,D] [F,B,D][F,B,D] | z2 z[K:treble] [B,DF] [B,DF][B,DF] | %5
 z [B,EG] z [B,DF] [B,DF][B,DF] | z [B,DF] z [A,CF] [A,CF][A,CF] | %7
 z [G,C=E] z [A,CF] [A,CF][A,CF] | z2 z [A,CF]/[A,CF]/ [A,CF][A,CF] | %9
 z [A,CF] z [B,DF]/[B,DF]/ [B,DF][B,DF] | z [B,DF] z [A,CF]/[A,CF]/ [A,CF][A,CF] | %11
 z [B,C=E] z [A,CF] [A,C_EF]2 | z2 z [B,DF] [B,DF][B,DF] | z [B,EG] z [B,DF] [B,DF][B,DF] | %14
 z [B,DF] z [B,EG] [B,EG][B,EG] | z [A,CEF] z [B,DF] [B,DF][B,DF] | [FA]>[FB] [Fc]3 [Fd] | %17
 [Fc][FA] [FB] [Bd]3 | [df]>[Bd] [Ac]3 [EB] | [FA][=EG] [FA]2 [_EG]2 | [DF]>[DF] [DF]3 [DF] | %21
 [EG][GB] [EG] [DF]3 | F>F [EG]3 [Ge] | [Fd][Ec] [DB]4- | [DB]2 z2 z2 |] %25
V:3
 z2 .B,,4 | .B,,2 .B,,4 | .B,,2 .F,4 | .F,2 .B,,4 | z2 .B,,4 | z B,, .B,,4 | .B,,2 .C,4 | %7
 .C,2 .F,4 | z2 .F,4 | .F,2 .B,,4 | .B,,2 .E,4 | .C,2 .F,,4 | z2 .B,,4 | .B,,2 .B,,4 | .B,,2 .E,4 | %15
 .E,2 .B,,4 | F,>F, F,3 F, | F,F, B, B,3 | B,>B, F,3 B,, | C,C, F,4 | B,,>B,, B,,3 B,, | %21
 B,,B,, B,, B,,3 | D,>D, E,3 E, | F,F, B,,4- | B,,2 z2 z2 |] %25
V:4
 z2 .B,,,4 | .B,,,2 .B,,,4 | .B,,,2 .F,,4 | .F,,2 .B,,,4 | z2 .B,,,4 | z B,,, .B,,,4 | %6
 .B,,,2 .C,,4 | .C,,2 .F,,4 | z2 .F,,4 | .F,,2 .B,,,4 | .B,,,2 .C,,4 | .C,,2 .F,,,4 | z2 .B,,,4 | %13
 .B,,,2 .B,,,4 | .B,,,2 .E,,4 | .E,,2 .B,,,4 | z6 | z6 | z6 | z6 | z6 | z6 | z6 | z F,, z2 z2 | %24
 z6 |] %25

